packages/icons/web/live_chat_filled_large.svg

<svg width="24" height="24" viewBox="0 0 24 24" fill="none" xmlns="http://www.w3.org/2000/svg">
<path fill-rule="evenodd" clip-rule="evenodd" d="M12 4C7.15904 4 3 7.46047 3 12C3 13.4452 3.41494 14.6033 3.83027 15.3998C4.01497 15.7541 4.20101 16.0394 4.35374 16.2503L3.38163 20.6175L8.42476 19.3465C8.6205 19.4211 8.89349 19.5163 9.22905 19.6107C9.91749 19.8045 10.8858 20 12 20C16.841 20 21 16.5395 21 12C21 7.46047 16.841 4 12 4ZM8 13C8.55228 13 9 12.5523 9 12C9 11.4477 8.55228 11 8 11C7.44772 11 7 11.4477 7 12C7 12.5523 7.44772 13 8 13ZM13 12C13 12.5523 12.5523 13 12 13C11.4477 13 11 12.5523 11 12C11 11.4477 11.4477 11 12 11C12.5523 11 13 11.4477 13 12ZM16 13C16.5523 13 17 12.5523 17 12C17 11.4477 16.5523 11 16 11C15.4477 11 15 11.4477 15 12C15 12.5523 15.4477 13 16 13Z" fill="#212933"/>
</svg>

<svg width="24" height="24" fill="none" xmlns="http://www.w3.org/2000/svg">
    <path fill-rule="evenodd" clip-rule="evenodd" d="M12 4c-4.841 0-9 3.46-9 8 0 1.445.415 2.603.83 3.4.185.354.371.64.524.85l-.972 4.367 5.043-1.27A10.324 10.324 0 0012 20c4.841-.001 9-3.462 9-8.001 0-4.54-4.159-8-9-8zm-4 9a1 1 0 100-2 1 1 0 000 2zm5-1a1 1 0 11-2 0 1 1 0 012 0zm3 1a1 1 0 100-2 1 1 0 000 2z" fill="currentColor"/>
</svg>
